assets/Chicken/Flat/chicken_flat.svg

<svg width="32" height="32" viewBox="0 0 32 32" fill="none" xmlns="http://www.w3.org/2000/svg">
<path d="M30.3562 26.4524L27.7095 14.5872C26.7625 9.65934 22.3393 5.97917 17.0867 6.21106C15.4945 6.27955 14.0693 7.0595 12.8658 8.152C11.6603 9.24622 10.6143 10.7082 9.75758 12.2868C8.05335 15.427 6.99023 19.2327 6.99023 22V27.2001C6.99023 29.2447 8.61874 30.9852 10.7116 31.0001C11.7675 31.0108 12.7148 30.5794 13.3997 29.8925C14.076 30.5713 15.0123 31.0001 16.0602 31.0001C17.0987 31.0001 18.0405 30.5722 18.7198 29.8926C19.3961 30.5713 20.3323 31.0001 21.3802 31.0001C22.4187 31.0001 23.3605 30.5722 24.0398 29.8926C24.7161 30.5713 25.6523 31.0001 26.7002 31.0001C28.7725 31.0001 30.4502 29.3224 30.4502 27.2501V27.2251L30.449 27.2002C30.4376 26.9729 30.4134 26.7098 30.3562 26.4524Z" fill="#9B9B9B"/>
<path d="M9.3001 16.6601L10.0801 17.0501C10.7101 17.3601 11.1101 18.0101 11.1101 18.7201V19.6401V21H7.8201L3.037 19.6518C2.96981 19.4477 2.9675 19.2293 3.0501 19.0201L3.3401 18.3001C4.1701 16.2401 6.0301 14.8101 8.1901 14.5101C8.6401 14.4501 9.0301 14.7901 9.0301 15.2401V16.2301C9.0301 16.4101 9.1401 16.5801 9.3001 16.6601Z" fill="#F9C23C"/>
<path d="M3.34014 20.1099C4.30014 21.0799 6.18014 21.9999 7.82014 21.9999H11.1101V20.7399L10.6001 19.6399H3.03516C3.08516 19.8099 3.20014 19.9699 3.34014 20.1099Z" fill="#FFB02E"/>
<path d="M20.7199 11.86V11.42C19.2599 11.31 17.9899 10.53 17.1899 9.4C16.5799 10.15 15.6899 10.68 14.6799 10.81C14.7099 11.01 14.7299 11.22 14.7299 11.43C14.7299 13.63 12.8999 15.4 10.6799 15.3C8.6999 15.21 7.0899 13.59 6.9999 11.61C6.9199 9.78 8.1099 8.21 9.7599 7.72C10.0899 7.62 10.3099 7.32 10.3099 6.98V6.97C10.3099 4.83 12.0399 3.1 14.1799 3.1C14.7399 3.1 15.2699 3.22 15.7499 3.43C16.5099 3.77 17.4099 3.64 18.0499 3.1C18.8599 2.42 19.9099 2.01 21.0499 2H21.1899C24.6399 2.08 26.2699 6.31 23.8299 8.75L20.7199 11.86Z" fill="#F8312F"/>
<path d="M8.99988 23.5L7.98991 25.4C7.98991 26.28 7.27991 27 6.38991 27C5.24991 27 4.47991 25.84 4.90991 24.78L5.67991 22.94C5.91991 22.37 6.46991 22 7.08991 22H7.98991L8.99988 23.5Z" fill="#F8312F"/>
<path d="M29.3802 26.6701L26.7302 14.7901C25.8802 10.3301 21.8802 7.00009 17.1302 7.21009C12.0002 7.43009 7.99023 11.7301 7.99023 16.8601V27.2001C7.99023 28.7201 9.20023 29.9901 10.7202 30.0001C11.6602 30.0101 12.4902 29.5401 13.0002 28.8201C13.2002 28.5401 13.6102 28.5401 13.8002 28.8201C14.3002 29.5301 15.1202 30.0001 16.0602 30.0001C16.9902 30.0001 17.8202 29.5301 18.3202 28.8201C18.5202 28.5401 18.9302 28.5401 19.1202 28.8201C19.6202 29.5301 20.4402 30.0001 21.3802 30.0001C22.3102 30.0001 23.1402 29.5301 23.6402 28.8201C23.8402 28.5401 24.2502 28.5401 24.4402 28.8201C24.9402 29.5301 25.7602 30.0001 26.7002 30.0001C28.2202 30.0001 29.4502 28.7701 29.4502 27.2501C29.4402 27.0501 29.4202 26.8501 29.3802 26.6701Z" fill="white"/>
<path d="M13.5 18C14.3284 18 15 17.3284 15 16.5C15 15.6716 14.3284 15 13.5 15C12.6716 15 12 15.6716 12 16.5C12 17.3284 12.6716 18 13.5 18Z" fill="#212121"/>
</svg>

<svg xmlns="http://www.w3.org/2000/svg" width="32" height="32" fill="none"><path fill="#9B9B9B" d="M30.356 26.452 27.71 14.587c-.947-4.928-5.37-8.608-10.622-8.376-1.592.069-3.018.848-4.221 1.941-1.206 1.094-2.252 2.556-3.108 4.135C8.053 15.427 6.99 19.233 6.99 22v5.2c0 2.045 1.629 3.785 3.722 3.8a3.73 3.73 0 0 0 2.688-1.108A3.74 3.74 0 0 0 16.06 31c1.039 0 1.98-.428 2.66-1.107A3.74 3.74 0 0 0 21.38 31c1.039 0 1.98-.428 2.66-1.107a3.748 3.748 0 0 0 6.41-2.643v-.025l-.001-.025a4.536 4.536 0 0 0-.093-.748Z"/><path fill="#F9C23C" d="m9.3 16.66.78.39c.63.31 1.03.96 1.03 1.67V21H7.82l-4.783-1.348a.917.917 0 0 1 .013-.632l.29-.72a6.139 6.139 0 0 1 4.85-3.79c.45-.06.84.28.84.73v.99c0 .18.11.35.27.43Z"/><path fill="#FFB02E" d="M3.34 20.11C4.3 21.08 6.18 22 7.82 22h3.29v-1.26l-.51-1.1H3.035c.05.17.165.33.305.47Z"/><path fill="#F8312F" d="M20.72 11.86v-.44a4.772 4.772 0 0 1-3.53-2.02c-.61.75-1.5 1.28-2.51 1.41a3.872 3.872 0 0 1-4 4.49C8.7 15.21 7.09 13.59 7 11.61a3.878 3.878 0 0 1 2.76-3.89c.33-.1.55-.4.55-.74v-.01c0-2.14 1.73-3.87 3.87-3.87.56 0 1.09.12 1.57.33.76.34 1.66.21 2.3-.33a4.72 4.72 0 0 1 3-1.1h.14c3.45.08 5.08 4.31 2.64 6.75l-3.11 3.11ZM9 23.5l-1.01 1.9c0 .88-.71 1.6-1.6 1.6-1.14 0-1.91-1.16-1.48-2.22l.77-1.84c.24-.57.79-.94 1.41-.94h.9L9 23.5Z"/><path fill="#fff" d="m29.38 26.67-2.65-11.88c-.85-4.46-4.85-7.79-9.6-7.58-5.13.22-9.14 4.52-9.14 9.65V27.2c0 1.52 1.21 2.79 2.73 2.8.94.01 1.77-.46 2.28-1.18.2-.28.61-.28.8 0 .5.71 1.32 1.18 2.26 1.18.93 0 1.76-.47 2.26-1.18.2-.28.61-.28.8 0 .5.71 1.32 1.18 2.26 1.18.93 0 1.76-.47 2.26-1.18.2-.28.61-.28.8 0 .5.71 1.32 1.18 2.26 1.18 1.52 0 2.75-1.23 2.75-2.75-.01-.2-.03-.4-.07-.58Z"/><path fill="#212121" d="M13.5 18a1.5 1.5 0 1 0 0-3 1.5 1.5 0 0 0 0 3Z"/></svg>
